lib/brands/icons/joomla.svg

<svg xmlns="http://www.w3.org/2000/svg" fill="none" aria-hidden="true" viewBox="0 0 48 48"><g id="joomla-Icon"><g id="Group"><path id="Vector" fill="#F9AE41" d="M41.8739 10.8804C41.8739 8.27195 39.7593 6.15736 37.1508 6.15736C34.7691 6.15736 32.8002 7.92061 32.4758 10.2128C32.4455 10.1968 32.4279 10.1877 32.4279 10.1877C28.5654 8.44552 25.3118 11.5312 25.3118 11.5312L16.7056 20.1796L20.1061 23.4543L27.0331 16.6489C30.2678 13.4141 32.0291 15.6035 32.0291 15.6035C34.4641 17.6606 32.113 20.0956 32.113 20.0956L35.5976 23.4543C38.4431 20.3811 38.6081 17.6988 37.7432 15.5651C40.0718 15.2735 41.8739 13.2881 41.8739 10.8804Z"/><path id="Vector_2" fill="#EE4035" d="M37.7874 32.6017C37.8034 32.5716 37.8125 32.554 37.8125 32.554C39.5548 28.6914 36.469 25.4379 36.469 25.4379L27.8205 16.8314L24.5459 20.2321L31.3513 27.1591C34.5861 30.3939 32.3967 32.1552 32.3967 32.1552C30.3396 34.5902 27.9045 32.2391 27.9045 32.2391L24.5459 35.7236C27.619 38.569 30.3013 38.7341 32.4349 37.8691C32.7265 40.1979 34.712 42 37.1197 42C39.7282 42 41.8427 39.8854 41.8427 37.2769C41.8427 34.8952 40.0796 32.9263 37.7874 32.6017Z"/><path id="Vector_3" fill="#4F91CD" d="M27.8939 24.5457L20.9669 31.351C17.7321 34.5859 15.9708 32.3966 15.9708 32.3966C13.5357 30.3394 15.8869 27.9045 15.8869 27.9045L12.4024 24.5459C9.55695 27.6189 9.3919 30.3012 10.2567 32.4349C7.9279 32.7264 6.12598 34.7117 6.12598 37.1195C6.12598 39.728 8.24056 41.8425 10.8491 41.8425C13.2308 41.8426 15.1997 40.0795 15.5241 37.7873C15.5544 37.8034 15.572 37.8123 15.572 37.8123C19.4346 39.5547 22.6881 36.4688 22.6881 36.4688L31.2944 27.8203L27.8939 24.5457Z"/><path id="Vector_4" fill="#7AC043" d="M16.6487 20.8409C13.4139 17.6061 15.6031 15.8448 15.6031 15.8448C17.6604 13.4098 20.0953 15.7609 20.0953 15.7609L23.454 12.2766C20.3809 9.43112 17.6987 9.26606 15.5651 10.1309C15.2734 7.80193 13.2881 6 10.8802 6C8.27181 6 6.15737 8.11458 6.15723 10.7231C6.15723 13.1049 7.92033 15.0739 10.2125 15.3983C10.1965 15.4286 10.1875 15.4462 10.1875 15.4462C8.44496 19.3086 11.5309 22.562 11.5309 22.562L20.1796 31.1685L23.4541 27.7679L16.6487 20.8409Z"/></g></g></svg>

<svg xmlns="http://www.w3.org/2000/svg" fill="none" aria-hidden="true" viewBox="0 0 48 48"><path fill="#F9AE41" d="M41.874 10.88a4.723 4.723 0 0 0-9.398-.667 6.952 6.952 0 0 0-.048-.025c-3.863-1.742-7.116 1.343-7.116 1.343l-8.606 8.649 3.4 3.274 6.927-6.805c3.235-3.235 4.996-1.046 4.996-1.046 2.435 2.058.084 4.493.084 4.493l3.485 3.358c2.845-3.073 3.01-5.755 2.145-7.889a4.723 4.723 0 0 0 4.13-4.685Z"/><path fill="#EE4035" d="m37.787 32.602.026-.048c1.742-3.863-1.344-7.116-1.344-7.116L27.82 16.83l-3.274 3.401 6.805 6.927c3.235 3.235 1.046 4.996 1.046 4.996-2.057 2.435-4.492.084-4.492.084l-3.36 3.485c3.074 2.845 5.756 3.01 7.89 2.145a4.723 4.723 0 1 0 5.352-5.267Z"/><path fill="#4F91CD" d="m27.894 24.546-6.927 6.805c-3.235 3.235-4.996 1.046-4.996 1.046-2.435-2.058-.084-4.492-.084-4.492l-3.485-3.36c-2.845 3.074-3.01 5.756-2.145 7.89a4.722 4.722 0 1 0 5.267 5.352l.048.025c3.863 1.743 7.116-1.343 7.116-1.343l8.606-8.649-3.4-3.274Z"/><path fill="#7AC043" d="M16.649 20.84c-3.235-3.234-1.046-4.995-1.046-4.995 2.057-2.435 4.492-.084 4.492-.084l3.359-3.484c-3.073-2.846-5.755-3.01-7.889-2.146a4.723 4.723 0 1 0-5.352 5.267l-.025.048c-1.743 3.863 1.343 7.116 1.343 7.116l8.649 8.607 3.274-3.401-6.805-6.927Z"/></svg>
